packages/components/icon/src/assets/icons/apps.svg

<svg width="24" height="24" viewBox="0 0 24 24" fill="none" xmlns="http://www.w3.org/2000/svg">
<path fill-rule="evenodd" clip-rule="evenodd" d="M7.20869 3C7.57749 3 7.85952 3.30372 7.85952 3.65083V7.20869C7.85952 7.57749 7.57749 7.85952 7.20869 7.85952H3.65083C3.30372 7.85952 3 7.57749 3 7.20869V3.65083C3 3.30372 3.30372 3 3.65083 3H7.20869ZM13.9122 3C14.2593 3 14.563 3.30372 14.563 3.65083V7.20869C14.563 7.57749 14.2593 7.85952 13.9122 7.85952H10.3327C9.98555 7.85952 9.68183 7.57749 9.68183 7.20869V3.65083C9.68183 3.30372 9.98555 3 10.3327 3H13.9122ZM20.5724 3C20.9412 3 21.2232 3.30372 21.2232 3.65083V7.20869C21.2232 7.57749 20.9412 7.85952 20.5724 7.85952H17.0145C16.6674 7.85952 16.3637 7.57749 16.3637 7.20869V3.65083C16.3637 3.30372 16.6674 3 17.0145 3H20.5724ZM7.20869 9.68183C7.57749 9.68183 7.85952 9.98555 7.85952 10.3327V13.8905C7.85952 14.2593 7.57749 14.5413 7.20869 14.5413H3.65083C3.30372 14.5413 3 14.2593 3 13.8905V10.3327C3 9.98555 3.30372 9.68183 3.65083 9.68183H7.20869ZM20.5724 9.68183C20.9412 9.68183 21.2232 9.98555 21.2232 10.3327V13.8905C21.2232 14.2593 20.9412 14.5413 20.5724 14.5413H17.0145C16.6674 14.5413 16.3637 14.2593 16.3637 13.8905V10.3327C16.3637 9.98555 16.6674 9.68183 17.0145 9.68183H20.5724ZM13.8905 9.70353C14.2593 9.70353 14.5413 9.98555 14.5413 10.3544V13.9122C14.5413 14.2593 14.2593 14.563 13.8905 14.563H10.3327C9.96386 14.563 9.68183 14.2593 9.68183 13.9122V10.3544C9.68183 9.98555 9.96386 9.70353 10.3327 9.70353H13.8905ZM7.20869 16.3637C7.57749 16.3637 7.85952 16.6674 7.85952 17.0145V20.5724C7.85952 20.9412 7.57749 21.2232 7.20869 21.2232H3.65083C3.30372 21.2232 3 20.9412 3 20.5724V17.0145C3 16.6674 3.30372 16.3637 3.65083 16.3637H7.20869ZM13.9122 16.3637C14.2593 16.3637 14.563 16.6674 14.563 17.0145V20.5724C14.563 20.9412 14.2593 21.2232 13.9122 21.2232H10.3327C9.98555 21.2232 9.68183 20.9412 9.68183 20.5724V17.0145C9.68183 16.6674 9.98555 16.3637 10.3327 16.3637H13.9122ZM20.5724 16.3637C20.9412 16.3637 21.2232 16.6674 21.2232 17.0145V20.5724C21.2232 20.9412 20.9412 21.2232 20.5724 21.2232H17.0145C16.6674 21.2232 16.3637 20.9412 16.3637 20.5724V17.0145C16.3637 16.6674 16.6674 16.3637 17.0145 16.3637H20.5724Z" fill="currentColor"/>
</svg>

<svg viewBox="0 0 24 24" fill="none" xmlns="http://www.w3.org/2000/svg"><path fill-rule="evenodd" clip-rule="evenodd" d="M7.209 3c.368 0 .65.304.65.65v3.56a.64.64 0 0 1-.65.65H3.65A.653.653 0 0 1 3 7.21V3.65c0-.346.304-.65.65-.65h3.56Zm6.703 0c.347 0 .651.304.651.65v3.56c0 .368-.304.65-.65.65h-3.58a.653.653 0 0 1-.651-.65V3.65c0-.347.304-.651.65-.651h3.58Zm6.66 0c.37 0 .651.304.651.65v3.56a.64.64 0 0 1-.65.65h-3.558a.653.653 0 0 1-.651-.65V3.65c0-.347.303-.651.65-.651h3.558ZM7.21 9.682c.368 0 .65.304.65.65v3.558a.64.64 0 0 1-.65.651H3.65a.653.653 0 0 1-.651-.65v-3.558c0-.347.304-.651.65-.651H7.21Zm13.363 0c.37 0 .651.304.651.65v3.558a.64.64 0 0 1-.65.651h-3.558a.653.653 0 0 1-.651-.65v-3.558c0-.347.303-.651.65-.651h3.558Zm-6.681.022a.64.64 0 0 1 .65.65v3.558a.653.653 0 0 1-.65.651h-3.558a.653.653 0 0 1-.651-.65v-3.559a.64.64 0 0 1 .65-.65h3.558Zm-6.682 6.66c.368 0 .65.303.65.65v3.558a.64.64 0 0 1-.65.651H3.65a.653.653 0 0 1-.651-.65v-3.558c0-.348.304-.651.65-.651H7.21Zm6.703 0c.347 0 .651.303.651.65v3.558c0 .37-.304.651-.65.651h-3.58a.653.653 0 0 1-.651-.65v-3.558c0-.348.304-.651.65-.651h3.58Zm6.66 0c.37 0 .651.303.651.65v3.558a.64.64 0 0 1-.65.651h-3.558a.653.653 0 0 1-.651-.65v-3.558c0-.348.303-.651.65-.651h3.558Z" fill="currentColor"/></svg>
